X:1
T:Up-Up Motif
M:4/4
L: 1/8
V:1
V:2 clef=bass
K:C
[V:1] D E F G/E/ | E F G A | F G A B/E/ | E F G A :|
[V:2] [D,F,A,]6 [D,F,A,][E,G,B,]2 | [E,G,B,]8 | [F,A,C]6 [F,A,C][E,G,B,]2 | [E,G,B,]8 :|